!!!COM: Robert Franz
!!!CNT: Deutscher
!!!TXO: Deutsche 
!!!OTL: Vom Auge zum Herzen
!!!OPS: Op. 26
!!!ONM: No. 5
!!!ONB: Original key: Ab Major
!!!LYR: Fr. Ruckert
!!!ENC: Brian Bice
!!!YOR: Vocal Album, G. Schirmer, Inc., 1907
!!!ODT: 1870/
!!NB: Vocal melody and text only encoded.
**kern	**silbe
*clefG2	*
*k[b-]	*
*M2/4	*
=4	=4
4r	.
8r	.
{8f	{Durch
=5	=5
8.dd	scho2-
16cc	-ne
8b-	Au-
8dd	-gen
=6	=6
8cc	hab'
8f	ich
8e	in
8f	ein
=7	=7
8.a	scho2-
16g	-nes
8f	Herz
8e	ge
=8	=8
4.f}	-schaut,}
8r	.
=9	=9
{4ee-	{das
8f	hat
8a	er-
=10	=10
8.dd	-ho-
16cc	-ben
8b-	mei-
8a	-nen
=11	=11
8b-	Sinn
8d	und
8.f	mein
16e	Ge-
=12	=12
4.g	-mu2th
8f	er-
=13	=13
4.f}	-baut.}
8r	.
=16	=16
4r	.
8r	.
{8f	{Durch
=17	=17
8.dd	scho2-
16cc	-ne
8b-	Au-
8dd	-gen
=18	=18
8cc	hab'
8f	ich
8e	in
8f	ein
=19	=19
8.a	scho2-
16g	-nes
8f	Herz
8e	ge-
=20	=20
4.f}	schaut,}
8r	.
=21	=21
{4ee-	{das
8f	hat
8a	ge-
=22	=22
8.dd	-leuch-
16cc	-tet
8b-	durch
8a	mich
=23	=23
8b-	hin
8d	und
8.f	sanft
16e	mich
=24	=24
4.g	u2-
8f	-ber-
=25	=25
4.f}	-thaut.}
8r	.
=28	=28
4r	.
8r	.
{8f	{Durch
=29	=29
8.dd	scho2-
16cc	-ne
8b-	Au-
8dd	-gen
=30	=30
8cc	hab'
8f	ich
8e	in
8f	ein
=31	=31
8.a	scho2-
16g	-nes
8f	Herz
8e	ge-
=32	=32
4.f}	-schaut,}
8r	.
=33	=33
{4ee-	{da-
8f	-von
8a	ich
=34	=34
(12cc	still
12b-)	|
12a	ge-
8.dd	-tro2-
16cc	-stet
=35	=35
8b-	bin,
8d	wenn
8.f	in
16e	der
=36	=36
4..g	Nacht
16f	mir
=37	=37
4.f}	graut.}
8r	.
*-	*-
